X: 34655
T: Road To Boston
R: polka
M: 2/4
K: Dmajor
|:f2 fe/f/|gf ed|cd ef|dA FA|
f2 fe/f/|gf ed|cd ef|d2 d2:|
|:a2 ag/a/|ba gf|g2 gf/g/|ag fe|
f2 fe/f/|gf ed|cd ef|d2 d2:|

